X: 946
T: Biddy early
C: anon.
O: Ireland
B: Francis O'Neill: "The Dance Music of Ireland" (1907) no. 946
R: Hornpipe
Z: Transcribed by Frank Nordberg - http://www.musicaviva.com
F: http://www.musicaviva.com/abc/tunes/ireland/oneill-1001/oneill-1001-094
6.abc
M: C
L: 1/8
K: Ador
(3(GAB)|c2(cB) cdeg|d(edB) GABd|cA (3AAA (ec)A(c|d)cBA GABd|c2(cA) cde(g|
d)ed(B GA)Bd|cBA(g ed)cB|c2A2A2:|
|:(ef)|g(fga)ged(c|B)cdB GABd|a(gab) age(a|ge)d(e cd)ef|gea(f ged)B|cBA(B
 cd)ea|g(fge) dfed|c2A2A2:|
W:
W:
W: From Musica Viva - http://www.musicaviva.com
W: the Internet center for free sheet music downloads.


